X: 305557
M: 2/4
L: 1/16
K: G
V: 1 staves=3
(GA) |\
.B2.B2 .G2.G2 | .F2.A2 z2B2 | .c2.c2 .F2.F2 | {A}.G4 z2(GA) |\
.B2.B2 .G2.G2 | F2d2 z2.d.d | .c2.c2 .E2.F2 | G4 z2 :|
|: (GA) |\
.B2.B2 .G2.G2 | FA3 z2 {A}B2 | .c2.c2 .E2.F2 | G4 z2 [gG][aA] |\
.[b2B2].[b2B2] .[g2G2].[g2G2] | [f3F3][aA] z2[b2B2] |\
.[c'2c2].[c'2c2] .[e2E2].[f2F2] | [g4G4] z2 :|
V: 2
(B,C) |\
.D2.D2 .D2.D2 | .D2.F2 .D2.G2 | .E2.E2 .C2.C2 |\
|: (B,C) |\
V: 3 clef=bass middle=d
z2 |\
.g2.g2 .b2.b2 | d'4 z2^g2 | a2a2 d2d2 | g4 z2 :|
|: z2 |\
g2g2 b2b2 | d'4 z2^g2 | a2a2 d2d2 | G4 z2 :|


